creative/fonts/xavani.svg

<?xml version="1.0" encoding="UTF-8" standalone="no"?>
<svg width="500" height="850" version="1.1" id="svg5" sodipodi:docname="xavani.svg" inkscape:version="1.4.3 (0d15f750, 2025-12-25)" xmlns:inkscape="http://www.inkscape.org/namespaces/inkscape" xmlns:sodipodi="http://sodipodi.sourceforge.net/DTD/sodipodi-0.dtd" xmlns="http://www.w3.org/2000/svg" xmlns:svg="http://www.w3.org/2000/svg">
    <defs id="defs5" />
    <sodipodi:namedview id="namedview5" pagecolor="#ffffff" bordercolor="#000000" borderopacity="0.25" inkscape:showpageshadow="2" inkscape:pageopacity="0.0" inkscape:pagecheckerboard="0" inkscape:deskcolor="#d1d1d1" inkscape:zoom="0.59294118" inkscape:cx="249.60317" inkscape:cy="425" inkscape:window-width="1095" inkscape:window-height="723" inkscape:window-x="0" inkscape:window-y="25" inkscape:window-maximized="0" inkscape:current-layer="svg5" />
    <path id="path5" d="m 128.91,271.245 -19.134,0.002 -13.529,13.529 -0.001,19.135 274.843,274.844 19.136,-0.002 13.528,-13.529 0.001,-19.135 z m 274.845,32.665 -0.002,-19.134 -13.529,-13.529 -19.135,-0.001 -274.844,274.843 0.002,19.136 13.529,13.528 19.135,10e-4 z M 55.65625,401.90234 42.126953,415.43359 v 19.13282 L 55.65625,448.09766 H 444.3457 l 13.52735,-13.53125 v -19.13282 l -13.5293,-13.53125 z M 163.89648,217.12695 v 0.002 L 55.65625,325.36719 42.126953,338.89648 v 0.002 19.13281 133.93945 19.13282 L 55.65625,524.63281 163.89648,632.87305 H 336.10352 L 444.3457,524.63281 457.87305,511.10352 h 0.002 V 491.9707 l -0.002,-0.002 v -133.9375 l 0.002,-0.002 -0.002,-19.13282 -13.5293,-13.52929 -108.24023,-108.23828 v -0.002 z m 19.13477,46.19532 H 316.9707 l 94.70899,94.70703 v 0.002 133.93945 L 316.9707,586.67969 H 183.0293 L 88.320312,491.9707 v -133.93945 -0.002 z m 19.13281,46.19335 -67.64844,67.64844 v 95.67188 l 67.64844,67.64844 h 95.67188 l 67.64844,-67.64844 v -95.67188 l -67.64844,-67.64844 z m 19.13672,46.19336 h 57.39844 v 0.002 l 40.58984,40.58984 v 57.39844 l -40.58984,40.58984 h -57.39844 l -40.58984,-40.58984 v -57.40039 z" style="fill:none;stroke:#ff0000" />
</svg>

<svg width="500" height="850" xmlns="http://www.w3.org/2000/svg">
    <path
        d="M 202.16406 309.51562 L 134.51562 377.16406 L 134.51562 472.83594 L 202.16406 540.48438 L 297.83594 540.48438 L 365.48438 472.83594 L 365.48438 377.16406 L 297.83594 309.51562 L 202.16406 309.51562 z M 221.30078 355.70898 L 278.69922 355.70898 L 278.69922 355.71094 L 319.28906 396.30078 L 319.28906 453.69922 L 278.69922 494.28906 L 221.30078 494.28906 L 180.71094 453.69922 L 180.71094 396.29883 L 221.30078 355.70898 z " />
    <path
        d="M 163.89648 217.12695 L 163.89648 217.12891 L 55.65625 325.36719 L 42.126953 338.89648 L 42.126953 338.89844 L 42.126953 358.03125 L 42.126953 491.9707 L 42.126953 511.10352 L 55.65625 524.63281 L 163.89648 632.87305 L 336.10352 632.87305 L 444.3457 524.63281 L 457.87305 511.10352 L 457.875 511.10352 L 457.875 491.9707 L 457.87305 491.96875 L 457.87305 358.03125 L 457.875 358.0293 L 457.87305 338.89648 L 444.34375 325.36719 L 336.10352 217.12891 L 336.10352 217.12695 L 163.89648 217.12695 z M 183.03125 263.32227 L 316.9707 263.32227 L 411.67969 358.0293 L 411.67969 358.03125 L 411.67969 491.9707 L 316.9707 586.67969 L 183.0293 586.67969 L 88.320312 491.9707 L 88.320312 358.03125 L 88.320312 358.0293 L 183.03125 263.32227 z " />
    <path
        d="M 55.65625 401.90234 L 42.126953 415.43359 L 42.126953 434.56641 L 55.65625 448.09766 L 444.3457 448.09766 L 457.87305 434.56641 L 457.87305 415.43359 L 444.34375 401.90234 L 55.65625 401.90234 z " />
    <path
        d="m403.755 303.91-.002-19.134-13.529-13.529-19.135-.001L96.245 546.089l.002 19.136 13.529 13.528 19.135.001z" />
    <path
        d="m128.91 271.245-19.134.002-13.529 13.529-.001 19.135 274.843 274.844 19.136-.002 13.528-13.529.001-19.135z" />
</svg>
